X:1
T: Caroline Robertson's Wedding
C:C Sherrit
R:Strathspey
Q: 128
K:D
M:4/4
L:1/16
A3G|:F3E FA3 D4 d3e|f3e dB3 A4 F3G|A3F E3F Dd3 d3c|B3A FD3 E4 A3G|
F3E FA3 D4 d3e|f3e dB3 A4 F3D|G3F GB3 A3d cd3|1E3D EF3 D4 A3G:|2E3D EF3 D4 d3e|
|:f3e df3 e4 ce3|d3B G3B B3A FA3|G3F GB3 A3F d3c|
|1B3A FD3 E4 d3e|f3e df3 e4 ce3|d3B G3B B3A FA3|G3F GB3 B3A d3F|E3D EF3 D4 d3e:|
|2B3A FD3 E4 A3G|F3E FA3 D4 d3e|f3e dB3 A4 F3D|G3F GB3 A3d cd3|E3D EF3 D4||
